public/icon/Z_ALL/Jackett.svg

<?xml version="1.0" encoding="UTF-8"?>
<svg width="1024px" height="1024px" viewBox="0 0 1024 1024" version="1.1" xmlns="http://www.w3.org/2000/svg" xmlns:xlink="http://www.w3.org/1999/xlink">
    <title>Jackett</title>
    <defs>
        <filter x="-7.5%" y="-3.4%" width="115.0%" height="106.8%" filterUnits="objectBoundingBox" id="filter-1">
            <feGaussianBlur stdDeviation="8" in="SourceGraphic"></feGaussianBlur>
        </filter>
        <filter x="-7.5%" y="-3.4%" width="115.0%" height="106.8%" filterUnits="objectBoundingBox" id="filter-2">
            <feGaussianBlur stdDeviation="8" in="SourceGraphic"></feGaussianBlur>
        </filter>
    </defs>
    <g id="ICON-新版方图标" stroke="none" stroke-width="1" fill="none" fill-rule="evenodd">
        <g id="Jackett">
            <rect id="蒙版路径" fill="#FFFFFF" x="0" y="0" width="1024" height="1024"></rect>
            <g id="编组2" transform="translate(196, 158)" fill="#B5B5B5" fill-rule="nonzero">
                <path d="M537.832614,708 L632,706.893366 L599.456859,134.210422 C599.456859,134.210422 536.170836,82.0603081 423.862381,71.5472881 C423.308456,72.2389342 427.739862,31.5701456 424.970233,25.0686722 C422.616049,19.5355036 379.825281,-2.87382888 311,0.30774265 L311,14.8323101 C342.573771,14.0023349 375.116911,18.1522112 388.965056,25.0686722 C395.473684,28.3885734 396.304573,42.7748119 390.211389,47.2013461 C383.841243,51.7662099 334.403365,49.5529425 334.403365,49.5529432 L328.587144,664.149639 C328.587144,664.149639 438.402933,656.126544 483.270923,626.939081 C482.440035,627.354068 483.270923,529.416985 483.270923,529.416985 L421.646678,542.143273 L420.538826,518.903965 L484.517256,508.390945 L487.979292,379.468117 C487.979292,379.468117 499.057808,370.20006 511.244176,378.361484 C510.828732,379.468117 537.832614,708 537.832614,708" id="路径" filter="url(#filter-1)"></path>
                <path d="M0,706.893366 L32.5571858,134.210422 C32.5571858,134.210422 95.8705221,82.0603081 208.227449,71.5472881 C208.781613,72.2389342 204.348295,31.5701456 206.980578,25.0686722 C209.335779,19.5355036 252.145015,-2.87382888 321,0.30774265 L321,14.8323101 C289.412602,14.0023349 256.855417,18.1522112 243.001295,25.0686722 C236.489858,28.3885734 235.65861,42.7748119 241.892965,47.2013461 C248.265861,51.7662099 297.725076,49.5529425 297.725076,49.5529432 L303.543807,664.149639 C303.543807,664.149639 193.680621,656.126544 148.793267,626.939081 C149.624514,627.354068 148.793267,529.416985 148.793267,529.416985 L210.444108,542.143273 L211.552438,518.903965 L147.546396,508.390945 L144.082865,379.468117 C144.082865,379.468117 132.999568,370.20006 120.807941,378.361484 C121.223565,379.468117 94.2080278,708 94.2080278,708 L0,706.893366 Z" id="路径" filter="url(#filter-2)"></path>
            </g>
            <g id="编组1" transform="translate(196, 95)" fill="#000000" fill-rule="nonzero">
                <path d="M537.832614,708 L632,706.893366 L599.456859,134.210422 C599.456859,134.210422 536.170836,82.0603081 423.862381,71.5472881 C423.308456,72.2389342 427.739862,31.5701456 424.970233,25.0686722 C422.616049,19.5355036 379.825281,-2.87382888 311,0.30774265 L311,14.8323101 C342.573771,14.0023349 375.116911,18.1522112 388.965056,25.0686722 C395.473684,28.3885734 396.304573,42.7748119 390.211389,47.2013461 C383.841243,51.7662099 334.403365,49.5529425 334.403365,49.5529432 L328.587144,664.149639 C328.587144,664.149639 438.402933,656.126544 483.270923,626.939081 C482.440035,627.354068 483.270923,529.416985 483.270923,529.416985 L421.646678,542.143273 L420.538826,518.903965 L484.517256,508.390945 L487.979292,379.468117 C487.979292,379.468117 499.057808,370.20006 511.244176,378.361484 C510.828732,379.468117 537.832614,708 537.832614,708" id="路径"></path>
                <path d="M94.2080278,708 L0,706.893366 L32.5571858,134.210422 C32.5571858,134.210422 95.8705221,82.0603081 208.227449,71.5472881 C208.781613,72.2389342 204.348295,31.5701456 206.980578,25.0686722 C209.335779,19.5355036 252.145015,-2.87382888 321,0.30774265 L321,14.8323101 C289.412602,14.0023349 256.855417,18.1522112 243.001295,25.0686722 C236.489858,28.3885734 235.65861,42.7748119 241.892965,47.2013461 C248.265861,51.7662099 297.725076,49.5529425 297.725076,49.5529432 L303.543807,664.149639 C303.543807,664.149639 193.680621,656.126544 148.793267,626.939081 C149.624514,627.354068 148.793267,529.416985 148.793267,529.416985 L210.444108,542.143273 L211.552438,518.903965 L147.546396,508.390945 L144.082865,379.468117 C144.082865,379.468117 132.999568,370.20006 120.807941,378.361484 C121.223565,379.468117 94.2080278,708 94.2080278,708" id="路径"></path>
            </g>
        </g>
    </g>
</svg>

<svg xmlns="http://www.w3.org/2000/svg" width="1024" height="1024"><defs><filter id="a" width="115%" height="106.8%" x="-7.5%" y="-3.4%" filterUnits="objectBoundingBox"><feGaussianBlur in="SourceGraphic" stdDeviation="8"/></filter><filter id="b" width="115%" height="106.8%" x="-7.5%" y="-3.4%" filterUnits="objectBoundingBox"><feGaussianBlur in="SourceGraphic" stdDeviation="8"/></filter></defs><g fill="none" fill-rule="evenodd"><path fill="#FFF" d="M0 0h1024v1024H0z"/><g fill="#B5B5B5" fill-rule="nonzero"><path d="M537.833 708 632 706.893 599.457 134.21S536.17 82.06 423.862 71.547c-.554.692 3.878-39.977 1.108-46.478C422.616 19.536 379.825-2.874 311 .308v14.524c31.574-.83 64.117 3.32 77.965 10.237 6.509 3.32 7.34 17.706 1.246 22.132-6.37 4.565-55.808 2.352-55.808 2.352l-5.816 614.597s109.816-8.023 154.684-37.21c-.831.414 0-97.523 0-97.523l-61.624 12.726-1.108-23.239 63.978-10.513 3.462-128.923s11.079-9.268 23.265-1.107C510.83 379.468 537.833 708 537.833 708" filter="url(#a)" transform="translate(196 158)"/><path d="M0 706.893 32.557 134.21s63.314-52.15 175.67-62.663c.555.692-3.879-39.977-1.246-46.478C209.336 19.536 252.145-2.874 321 .308v14.524c-31.587-.83-64.145 3.32-77.999 10.237-6.511 3.32-7.342 17.706-1.108 22.132 6.373 4.565 55.832 2.352 55.832 2.352l5.819 614.597s-109.863-8.023-154.75-37.21c.83.414 0-97.523 0-97.523l61.65 12.726 1.108-23.239-64.006-10.513-3.463-128.923S133 370.2 120.808 378.361c.416 1.107-26.6 329.639-26.6 329.639L0 706.893" filter="url(#b)" transform="translate(196 158)"/></g><g fill="#000" fill-rule="nonzero"><path d="M733.833 803 828 801.893 795.457 229.21s-63.286-52.15-175.595-62.663c-.554.692 3.878-39.977 1.108-46.478-2.354-5.533-45.145-27.943-113.97-24.761v14.524c31.574-.83 64.117 3.32 77.965 10.237 6.509 3.32 7.34 17.706 1.246 22.132-6.37 4.565-55.808 2.352-55.808 2.352l-5.816 614.597s109.816-8.023 154.684-37.21c-.831.414 0-97.523 0-97.523l-61.624 12.726-1.108-23.239 63.978-10.513 3.462-128.923s11.079-9.268 23.265-1.107C706.83 474.468 733.833 803 733.833 803"/><path d="M290.208 803 196 801.893l32.557-572.683s63.314-52.15 175.67-62.663c.555.692-3.879-39.977-1.246-46.478 2.355-5.533 45.164-27.943 114.019-24.761v14.524c-31.587-.83-64.145 3.32-77.999 10.237-6.511 3.32-7.342 17.706-1.108 22.132 6.373 4.565 55.832 2.352 55.832 2.352l5.819 614.597s-109.863-8.023-154.75-37.21c.83.414 0-97.523 0-97.523l61.65 12.726 1.108-23.239-64.006-10.513-3.463-128.923S329 465.2 316.808 473.361c.416 1.107-26.6 329.639-26.6 329.639"/></g></g></svg>
